X:5
T:Bowstruck
C:Chris Perry
S:The Fiddle Player's Tunebook 1
M:2/4
L:1/8
K:D
|:F/G/ |
"D"A3/2B/ Ad |"C"=cA "G"GF/G/ |"D"Ad ef |"G"ge "A"a3/2g/ |
"D"fd gf |"A"ec "D"dA |"G"BG "A"A/B/A/G/ |"D"F D2 :: D/F/ |
"A"EC/A,/ A,/C/E/G/ |"D"F D2 D/F/ |"A"EC/A,/ A,/C/E/G/ |
"D"F3 D/F/ |"A"EC/A,/ A,/C/E/G/ |"D"F D2 A/F/ |"G"GB/G/ "A"AB/c/ |
"D"d3 d/f/ |"A"e/g/e/c/ A/c/e/g/ |"D"fa fd |"A"e/g/e/c/ A/c/e/g/ |
"D"f d2 d/f/ |"A"e/g/e/c/ A/c/e/g/ |"D"fa fd |
"G"g/b/a/g/ "D"f/a/g/f/ |"A"e/c/A/c/ "D"d2 ||
